X: 16
T: Płacz sprawiedliwy i skargę moję
C: Mikołaj Gomółka
%%abc-version 2.0
%%abcx-abcm2ps-target-version 5.9.1 (29 Sep 2008)
%%abc-creator hum2abc beta
%%abcx-conversion-date 2021/10/04 07:59:10
%%abc-edited-by Leszek Kubiak
%%abcx-initial-encoding-date data 2020-02-04
%%humdrum-veritas 4218805635
%%humdrum-veritas-data 969083245
%%linebreak <none>
%%barnumbers 0
L: 1/4
M: 4/2
N: Derived from pl-wn--sd-xvi-qu-273--017_gomolka-mikolaj--placz-sprawiedliwy-i-skarge-moje.krn
%%staves [1 2 3 4]
V: 1
V: 2 clef=alto
V: 3 clef=tenor
V: 4 clef=bass
K: C
[V:1] A4A2A3 [|] 
[V:2] E4F3E [|] 
[V:3] ^C4D3E [|] 
[V:4] A,4D,2D,2 | 
[V:1] GABc2c2 [|] 
[V:2] D2D2C2E2 [|] 
[V:3] F2F2E2C2 [|] 
[V:4] D,E,F,G,A,2A,2 [|] 
[V:1] B2A4G2 [|] 
[V:2] F2F2E3D [|] 
[V:3] D2>C2B,4 [|] 
[V:4] D,2D,2E,4 [|] 
[V:1] A4 [|] 
[V:2] ^C4 [|] 
[V:3] A,4 [|] 
[V:4] A,,4 [|] 
[V:1] c4 [I:setbarnb 5][|] 
[V:2] F3E [|] 
[V:3] A,4 [|] 
[V:4] F,,4 [|] 
[V:1] _B2B2A4 [|] 
[V:2] DCD4C2 [|] 
[V:3] F,2G,2E,4 [|] 
[V:4] _B,,2G,,2A,,4 [|] 
[V:1] A2B2c3B/A/ [|] 
[V:2] D2D2E2E2 [|] 
[V:3] F,2G,2G,2A,2 [|] 
[V:4] D,2G,,2C,2A,,2 [|] 
[V:1] GA2GA4 [|] 
[V:2] E4E4 [|] 
[V:3] B,4^C4 [|] 
[V:4] E,4A,,4 [|] 
[V:1] ^F4G3A [|] 
[V:2] A,2DCB,A,G,2 [|] 
[V:3] D2A,2B,2C2 [|] 
[V:4] D,4G,,2C,2 [|] 
[V:1] _B2B2A3G [|] 
[V:2] G,2G,2F,3G, [|] 
[V:3] DCDE2<F2E [|] 
[V:4] _B,,2G,,2D,3E, [|] 
[V:1] F2EF^GA2G [|] 
[V:2] A,B,CD2<E2D [|] 
[V:3] DCCB,/A,/B,4 [|] 
[V:4] F,G,A,2E,4 [|] 
[V:1] A32 |]  
[V:2] C32 |]  
[V:3] A,32 |]  
[V:4] A,,32 |]  


